!!!COM: Peter Cornelius
!!!CNT: Deutsch
!!!TXO: Deutsch
!!!OTL: Nachts
!!!LYR: Cornelius
!!!OPR: Six Songs
!!!OPS: Op.1
!!!ONM: No. 5
!!!ENC: Ben Fuhrman
!!!YOR: CD Sheet Music, Mid-Romantic German Lieder: The Ultimate Collection.
!!!YOR: CD Sheet Music, LLC 2001
!!!ODT: 1853 
!!NB: Only vocal melody encoded.
!!NB: First instance of melodic material only encoded.
!!created: 2/1/10 2:28PM
!!proofed and posted: 2/1/10 2:30PM
**kern	**silbe
*clef G2	*
*k[f#]	*
*M2/4	*
*MM[Tra2umerisch, ruhig]	*
=1	=1
{4dd	{Nachts
8.g	bin
16a	vom
=2	=2
4.f#	Traum
8e	schlaf-
=3	=3
8d	-trun-
8e	-ken
8.f	ich
16b	er-
=4	=4
[4a	-wacht;
8a]}	|}
8r	.
=5	=5
{4dd	wach
8g.	war
16a	ich
=6	=6
4.f#}	kaum,}
8r	.
=7	=7
8r	.
{8e	{da
8f#	hab'
8g	ich
=8	=8
8b	gleich
8a	an
(8g	dich
16f#)	|
16dd	ge-
=9	=9
([2dd	-dacht.
=10	=10
4dd]	|
[4cc	|
=11	=11
4cc])}	|}
4r	.
=12	=12
2r	.
=13	=13
{4dd	{Die
8.ee	Lip-
16ee	-pe
=14	=14
4.a	sprach
8b	ein
=15	=15
8cc	wun-
8b	-der-
8.a	-heim-
16g	-lich
=16	=16
4.g}	Wort}
8r	.
=17	=17
8r	.
{8dd	{dem
8.ee	Her-
16ee	-zen
=18	=18
(4ee	nach
[4a)	|
=19	=19
8a]	|
8a	dann
8b	tra2umt'
8cc	ich
=20	=20
(4dd	se-
8b)}	-lig}
8r	.
=21	=21
4r	.
{8.b	{wei-
16a	-ter
=22	=22
[2g	fort.
=23	=23
2g_	|
=24	=24
4g]}	|}
4r	.
==	==
*-	*-
